X: 36720
T: Sheep In The Boat, The
R: jig
M: 6/8
K: Edorian
|:BEF GFE|FEF def|edB BAF|AFE FED|
E2F GFE|FEF def|edB BAF|1 AFE E2B:|2 AFE EFA||
B2e ede|fef def|edB BAF|AFE FED|
B2e ede|f3 def|edB BAF|AFE EFA|
B2e ede|fef def|edB BAF|AFE ~F3|
E2F GFE|FEF def|edB BAF|AFE E2B-||

